packages/ffe-icons/icons/open/300/sm/gps_fixed.svg

<svg xmlns="http://www.w3.org/2000/svg" height="20" viewBox="0 -960 960 960" width="20"><path d="M454.001-104.001v-61.231q-121-12.846-198.462-90.807-77.461-77.962-90.307-197.962h-61.231q-11.05 0-18.524-7.418-7.475-7.418-7.475-18.384 0-10.966 7.475-18.581t18.524-7.615h61.231q12.846-120 90.307-197.962 77.462-77.961 198.462-90.807v-61.231q0-11.049 7.418-18.524 7.418-7.475 18.384-7.475 10.966 0 18.581 7.475t7.615 18.524v61.231q121 12.846 198.462 90.807 77.461 77.962 90.307 197.962h61.231q11.049 0 18.524 7.418 7.475 7.418 7.475 18.384 0 10.966-7.475 18.581t-18.524 7.615h-61.231q-12.846 120-90.307 197.962-77.462 77.961-198.462 90.807v61.231q0 11.05-7.418 18.524-7.418 7.475-18.384 7.475-10.966 0-18.581-7.475t-7.615-18.524ZM480-216q110 0 187-77t77-187q0-110-77-187t-187-77q-110 0-187 77t-77 187q0 110 77 187t187 77Zm0-140.001q-51.749 0-87.874-36.125-36.125-36.125-36.125-87.874 0-51.749 36.125-87.874 36.125-36.125 87.874-36.125 51.749 0 87.874 36.125 36.125 36.125 36.125 87.874 0 51.749-36.125 87.874-36.125 36.125-87.874 36.125ZM480-401q32.588 0 55.794-23.206Q559-447.413 559-480q0-32.588-23.206-55.794Q512.588-559 480-559q-32.587 0-55.794 23.206Q401-512.588 401-480q0 32.587 23.206 55.794Q447.413-401 480-401Zm1-80Z"/></svg>

<svg xmlns="http://www.w3.org/2000/svg" height="20" viewBox="0 -960 960 960" width="20"><path d="M454-104v-61.23q-121-12.85-198.46-90.81Q178.08-334 165.23-454H104q-11.05 0-18.52-7.42Q78-468.84 78-479.8q0-10.97 7.48-18.58Q92.95-506 104-506h61.23q12.85-120 90.31-197.96Q333-781.92 454-794.77V-856q0-11.05 7.42-18.52 7.42-7.48 18.38-7.48 10.97 0 18.58 7.48Q506-867.05 506-856v61.23q121 12.85 198.46 90.81Q781.92-626 794.77-506H856q11.05 0 18.52 7.42 7.48 7.42 7.48 18.38 0 10.97-7.48 18.58Q867.05-454 856-454h-61.23q-12.85 120-90.31 197.96Q627-178.08 506-165.23V-104q0 11.05-7.42 18.52Q491.16-78 480.2-78q-10.97 0-18.58-7.48Q454-92.95 454-104Zm26-112q110 0 187-77t77-187q0-110-77-187t-187-77q-110 0-187 77t-77 187q0 110 77 187t187 77Zm0-140q-51.75 0-87.87-36.13Q356-428.25 356-480q0-51.75 36.13-87.87Q428.25-604 480-604q51.75 0 87.87 36.13Q604-531.75 604-480q0 51.75-36.13 87.87Q531.75-356 480-356Zm0-45q32.59 0 55.79-23.21Q559-447.41 559-480t-23.21-55.79Q512.59-559 480-559t-55.79 23.21Q401-512.59 401-480t23.21 55.79Q447.41-401 480-401Zm1-80Z"/></svg>
